X: 231
T:Mrs Brodie Sheriff of Battleblent's Reel
S:Kerr's Second Collection of Merry Melodies for the Violin (Glasgow, 1880
S:
N:there's a strathspey version printed before this
C:G. Rankin
M:C
L:1/8
Z: Jack Campin
K:G
  DEGA BABd|efge dcBA|   GFGA BABd|egdB (3AAA [1 A2:|\
                                              [2 A ||
d|gfga bage|dgBg dgBg|[1 gfga bage|dgBg   A2     A :|\
                      [2 bfge fdec|BdAB   G2     G2|]

